X: 1
T: Third of July
C: Chirps Smith [Volo Bogtrotters]
R: march, reel
Z: 2020 John Chambers <jc:trillian.mit.edu> 2020-7-23
S: https://www.facebook.com/groups/Fiddletuneoftheday/
S: https://www.facebook.com/groups/Fiddletuneoftheday/photos/
M: C|
L: 1/8
K: F
FD |:\
C2F2 F3G | A2A2 A3G | F2A2 c2cd | c2B2 BABG | CDEF G2A2 |
B2B2 BABc |[1 d2c2 cdc2 | A4- A4 :|[2 d2c2 AcAG | F4- F2 ||
|: AB |\
c2f2 a3g | f2f2- f2ef | g2f2 e2d2 | c4 c4 | c2c2 G3A |
B2B2 BABc |[1 d2c2 cdc2 | A4- A2 :|[2 d2c2 AcAG | F4- F2 |]
